assets/static/img/catalog/2.svg

<svg viewBox="0 0 174 152" fill="none" xmlns="http://www.w3.org/2000/svg" id="self">
	<path d="M87.8715 51.2308V127.413" stroke="var(--main-color, #377CB5)" stroke-width="1.5"></path>
	<path d="M88.4571 50.6451L33.9573 34.8226V112.177L88.4571 128L143.543 112.177V34.8226L88.4571 50.6451Z" stroke="var(--main-color, #377CB5)" stroke-width="1.5"></path>
	<path d="M43.3333 37.1663V26.6179L87.2847 50.0587L134.752 26.6179V37.1663" stroke="var(--main-color, #377CB5)" stroke-width="1.5"></path>
	<path d="M50.9523 30.1344V19L87.2855 49.473L127.721 20.7581V29.5484" stroke="var(--main-color, #377CB5)" stroke-width="1.5"></path>
	<path d="M38.6458 55.3337V72.0586C38.6458 72.2753 38.9422 72.3373 39.029 72.1388L45.2948 57.817C45.3817 57.6185 45.6781 57.6805 45.6781 57.8972V74.0863" stroke="var(--main-color, #377CB5)" stroke-width="1.5" stroke-linecap="round"></path>
	<path d="M49.9442 58.8498C49.9442 58.4356 49.6084 58.0998 49.1942 58.0998C48.78 58.0998 48.4442 58.4356 48.4442 58.8498H49.9442ZM48.4442 75.2584C48.4442 75.6726 48.78 76.0084 49.1942 76.0084C49.6084 76.0084 49.9442 75.6726 49.9442 75.2584H48.4442ZM55.8044 60.4572C55.8044 60.043 55.4686 59.7072 55.0544 59.7072C54.6402 59.7072 54.3044 60.043 54.3044 60.4572H55.8044ZM54.3044 77.0164C54.3044 77.4306 54.6402 77.7664 55.0544 77.7664C55.4686 77.7664 55.8044 77.4306 55.8044 77.0164H54.3044ZM54.8015 67.8889L54.6031 68.6122L54.8015 67.8889ZM48.4442 58.8498V66.3509H49.9442V58.8498H48.4442ZM48.4442 66.3509V75.2584H49.9442V66.3509H48.4442ZM48.9958 67.0742L54.6031 68.6122L54.9999 67.1656L49.3926 65.6276L48.9958 67.0742ZM55.8044 67.696V60.4572H54.3044V67.696H55.8044ZM54.3044 60.4572V77.0164H55.8044V60.4572H54.3044ZM54.6031 68.6122C55.2077 68.778 55.8044 68.323 55.8044 67.696H54.3044C54.3044 67.333 54.6498 67.0696 54.9999 67.1656L54.6031 68.6122Z" fill="var(--main-color, #377CB5)"></path>
	<path d="M62.0863 62.366V79.3605" stroke="var(--main-color, #377CB5)" stroke-width="1.5" stroke-linecap="round"></path>
	<path d="M58.1478 65.2292C58.1478 63.7212 59.6021 62.6401 61.0462 63.0747L63.7106 63.8765C65.084 64.2898 66.0241 65.5544 66.0241 66.9886V72.3944C66.0241 73.9024 64.5698 74.9835 63.1257 74.549L60.4613 73.7472C59.0879 73.3339 58.1478 72.0692 58.1478 70.635V65.2292Z" stroke="var(--main-color, #377CB5)" stroke-width="1.5"></path>
	<path d="M69.1186 63.5373V81.1179" stroke="var(--main-color, #377CB5)" stroke-width="1.5" stroke-linecap="round"></path>
	<path d="M69.1186 64.124L70.6359 64.4455C72.4844 64.8372 73.8067 66.4691 73.8067 68.3587V72.5881C73.8067 74.5398 71.9726 75.9719 70.0791 75.4985L69.1186 75.2584" stroke="var(--main-color, #377CB5)" stroke-width="1.5" stroke-linecap="round"></path>
	<path d="M74.3928 82.8767L79.1655 66.6666C79.2246 66.4658 79.5134 66.4792 79.5536 66.6846L83.1831 85.2207" stroke="var(--main-color, #377CB5)" stroke-width="1.5" stroke-linecap="round"></path>
	<path d="M76.1508 77.6018L80.839 78.7738" stroke="var(--main-color, #377CB5)" stroke-width="1.5" stroke-linecap="round"></path>
	<path d="M130.942 81.101C126.065 90.9591 115.693 95.4813 107.896 91.6237C100.099 87.7662 97.4017 76.7778 102.279 66.9197C107.157 57.0616 117.528 52.5394 125.325 56.3969C133.122 60.2545 135.819 71.2429 130.942 81.101Z" stroke="var(--main-color, #377CB5)" stroke-width="1.5"></path>
	<path d="M97.2481 66.8975C97.8752 64.7514 99.3137 61.6337 102.001 58.7208C104.742 55.7493 107.704 54.5052 108.654 54.1617" stroke="var(--main-color, #377CB5)" stroke-width="1.5"></path>
	<path d="M110.14 82.8759L112.411 65.8391C112.436 65.6541 112.678 65.6007 112.778 65.7581L116.396 71.4436C116.48 71.5747 116.674 71.5647 116.744 71.4256L120.404 64.1048C120.492 63.9299 120.752 63.9715 120.781 64.1649L123.032 79.3598" stroke="var(--accent-color, #F58220)" stroke-width="1.5" stroke-linecap="round"></path>
</svg>

<svg xmlns="http://www.w3.org/2000/svg" id="self" fill="none" viewBox="0 0 174 152"><path stroke="var(--main-color, #377CB5)" stroke-width="1.5" d="M87.872 51.23v76.183M88.457 50.645l-54.5-15.822v77.354L88.457 128l55.086-15.823V34.823z"/><path stroke="var(--main-color, #377CB5)" stroke-width="1.5" d="M43.333 37.166V26.618l43.952 23.44 47.467-23.44v10.548"/><path stroke="var(--main-color, #377CB5)" stroke-width="1.5" d="M50.952 30.134V19l36.334 30.473 40.435-28.715v8.79"/><path stroke="var(--main-color, #377CB5)" stroke-linecap="round" stroke-width="1.5" d="M38.646 55.334v16.725c0 .216.296.278.383.08l6.266-14.322c.087-.199.383-.136.383.08v16.19"/><path fill="var(--main-color, #377CB5)" d="M49.944 58.85a.75.75 0 0 0-1.5 0zm-1.5 16.408a.75.75 0 0 0 1.5 0zm7.36-14.8a.75.75 0 0 0-1.5 0zm-1.5 16.558a.75.75 0 0 0 1.5 0zm.497-9.127-.198.723zm-6.357-9.04v7.502h1.5V58.85zm0 7.502v8.907h1.5v-8.907zm.552.723 5.607 1.538.397-1.446-5.607-1.538zm6.808.622v-7.239h-1.5v7.239zm-1.5-7.239v16.56h1.5v-16.56zm.3 8.155a.95.95 0 0 0 1.2-.916h-1.5a.55.55 0 0 1 .696-.53z"/><path stroke="var(--main-color, #377CB5)" stroke-linecap="round" stroke-width="1.5" d="M62.086 62.366v16.995"/><path stroke="var(--main-color, #377CB5)" stroke-width="1.5" d="M58.148 65.23a2.25 2.25 0 0 1 2.898-2.155l2.665.801a3.25 3.25 0 0 1 2.313 3.113v5.405a2.25 2.25 0 0 1-2.898 2.155l-2.665-.802a3.25 3.25 0 0 1-2.313-3.112z"/><path stroke="var(--main-color, #377CB5)" stroke-linecap="round" stroke-width="1.5" d="M69.119 63.537v17.58M69.119 64.124l1.517.322a4 4 0 0 1 3.17 3.913v4.23a3 3 0 0 1-3.727 2.91l-.96-.24M74.393 82.877l4.772-16.21c.06-.201.348-.188.389.018l3.63 18.536M76.15 77.602l4.689 1.172"/><path stroke="var(--main-color, #377CB5)" stroke-width="1.5" d="M130.942 81.101c-4.877 9.858-15.249 14.38-23.046 10.523s-10.494-14.846-5.617-24.704c4.878-9.858 15.249-14.38 23.046-10.523s10.494 14.846 5.617 24.704ZM97.248 66.898c.627-2.147 2.066-5.264 4.753-8.177 2.741-2.972 5.703-4.216 6.653-4.56"/><path stroke="var(--accent-color, #F58220)" stroke-linecap="round" stroke-width="1.5" d="m110.14 82.876 2.271-17.037a.2.2 0 0 1 .367-.08l3.618 5.685a.2.2 0 0 0 .348-.018l3.66-7.321a.2.2 0 0 1 .377.06l2.251 15.195"/></svg>
